X:1
T:Walder, CM
T:Walder, CM
T:Johann Jakob Walder, 1788
T:Public Domain Courtesy of the Cyber Hymnal™
C:Johann Jakob Walder, 1788
Z:Public Domain
Z:Courtesy of the Cyber Hymnal™
%%score ( 1 2 ) 3
L:1/8
Q:1/4=115
M:4/4
K:Ab
V:1 treble 
V:2 treble 
V:3 bass 
V:1
 [CE]2 | [Ec]3 [EB] [CA]2 [DF]2 | [B,E]2 [B,D]2 [A,C]2 [CE]2 | [CA]2 [FA]2 [EG]2 [=DF]2 | %4
 E6 [EG]2 | [EB]3 [FA] [EG]2 [EB]2 | [Dd]2 [Ec]2 [EB]2 [Ec]2 | [Ee]2 [Fd]2 [Ec]2 [EB]2 | [CA]6 |] %9
V:2
 x2 | x8 | x8 | x8 | E6 x2 | x8 | x8 | x8 | x6 |] %9
V:3
 [A,,A,]2 | [A,,A,]3 [E,G,] [F,A,]2 [D,A,]2 | [E,G,]2 [G,,E,]2 [A,,E,]2 [A,,A,]2 | %3
 [F,,A,]2 [F,,C]2 [B,,B,]2 B,2 | [E,G,]6 [E,B,]2 | [G,B,]3 [=D,B,] [E,B,]2 [E,G,]2 | %6
 [B,,F,]2 [C,A,]2 [E,G,]2 [A,,A,]2 | [C,A,]2 [D,A,]2 [E,A,]2 [E,G,]2 | [A,,A,]6 |] %9

